X:1
T: Marnoch's Strathspey
C:William Marshall
R:Strathspey
Q: 232
K:Am
M:4/4
L:1/16
|:B,2|C2E2 A,2A2 C2A,2 A,2C2|B,2A,2 G,2G2 B,2G,2 G,2B,2|C2E2 A,2A2 C2A,2 A,2c2|C2G2 d2B2 A4 A2B,2|
C2E2 A,2A2 C2A,2 A,2C2 B,2A,2|G,2G2 B,2G,2 G,2B,2|C2E2 A,2A2 C2A,2 A,2c2|C2G2 d2B2 A4 A2B2|
c2e2 A2e2 c2A2 A2c2|B2G2 d2G2 B2G2 G2B2|c2e2 A2e2 c2A2 A2c2|B2G2 d2B2 A4 A2B2|
c2e2 A2e2 c2A2 A2c2|B2G2 d2G2 B2G2 G2B2|c2e2 d2B2 c2A2 B2G2|A2E2 G2B,2 A,4 A,2:|
